!!!COM: Bach, Johann Sebastian
!!!CDT: 1685/3//-1750/7/28/
!!!OTL@@DE: Dank sei Gott in der Höhe
!!!OTL@EN:  Thanks be to God in the highest
!!!AGN: 4-Part Chorale
!!!SCT: BH 311
!!!SCT: BWV 287
**harm	**root	**kern	**kern	**kern	**kern
!	!	!bass	!tenor	!alto	!soprno
*	*Iorgan	*Iorgan	*Iorgan	*Iorgan	*Iorgan
*	*	*clefF4	*clefF4	*clefG2	*clefG2
*M4/4	*M4/4	*M4/4	*M4/4	*M4/4	*M4/4
*met(c)	*met(c)	*met(c)	*met(c)	*met(c)	*met(c)
*MM60	*MM60	*MM60	*MM60	*MM60	*MM60
*k[b-e-]	*k[b-e-]	*k[b-e-]	*k[b-e-]	*k[b-e-]	*k[b-e-]
*>[A,A,B]	*>[A,A,B]	*>[A,A,B]	*>[A,A,B]	*>[A,A,B]	*>[A,A,B]
*>A	*>A	*>A	*>A	*>A	*>A
*B-:	*B-:	*B-:	*B-:	*B-:	*B-:
Vb	4CC	4A	4f	4cc	4ff
=1	=1	=1	=1	=1	=1
I	4FF	8B-	4f	8b-	4dd
.	.	8A-	.	8cc	.
viiob/IV	4AA	8G	4a-	4dd	4ff
.	.	8F	.	.	.
IV	4BB-	4E-	4b-	8ee-	4gg
.	.	.	.	8dd	.
V	4CC	4F	4a	8cc	4ff
.	.	.	.	8dd	.
=2	=2	=2	=2	=2	=2
IVb	4BB-	4G	4b-	8ee-	2ee-
.	.	.	.	8dd	.
V7b	4CC	4A	4f	4cc	.
I;	4FF;	4B-;	4f;	4b-;	4dd;
I	4FF	4B-	4f	4b-	4dd
=3	=3	=3	=3	=3	=3
V7d	4CC	8e-	4f	4a	4cc
.	.	8d	.	.	.
I	4FF	8c	4f	4b-	4dd
.	.	8B-	.	.	.
V7	2CC	4f	8f	4b-	4cc
.	.	.	16e-	.	.
.	.	.	16d	.	.
.	.	4F	4e-	4a	4cc
=4	=4	=4	=4	=4	=4
I;	2.FF;	2.B-;	2.d;	2.f;	2.b-;
=:|!	=:|!	=:|!	=:|!	=:|!	=:|!
*>B	*>B	*>B	*>B	*>B	*>B
Vb	4CC	8A	4c	8f	4cc
.	.	8G	.	8g	.
=5	=5	=5	=5	=5	=5
V	4CC	8F	4f	4a	4cc
.	.	8f	.	.	.
I	4FF	8e-	4B-	4f	4dd
.	.	8d	.	.	.
ii	4GG	8c	8e-	4g	4ee-
.	.	8B-	8d	.	.
Vb	4CC	4A	4c	4f	8ff
.	.	.	.	.	8ee-
=6	=6	=6	=6	=6	=6
I	4.FF	4B-	8d	4.f	2dd
.	.	.	8c	.	.
.	.	8D	4B-	.	.
IV7	8BB-	8E-	.	8g	.
V;	4CC;	4F;	4f;	4a;	4cc;
*F:	*F:	*F:	*F:	*F:	*F:
I	4CC	4F	4f	4a	4cc
!!linebreak: 2
=7	=7	=7	=7	=7	=7
IV	8FF	8B-	8f	4b-	8dd
viiob	8BB	8A	8g	.	8ee
I	4CC	8G	4a	4cc	4ff
.	.	8F	.	.	.
ii	4DD	4B-	4.g	4dd	8gg
.	.	.	.	.	8ff
V7	4GG	4c	.	4cc	4ee
.	.	.	16a	.	.
.	.	.	16b-	.	.
=8	=8	=8	=8	=8	=8
I;	2.CC;	2.F;	2.a;	2.cc;	2.ff;
*B-:	*B-:	*B-:	*B-:	*B-:	*B-:
V	4CC	4F	4c	4a	4ff
=9	=9	=9	=9	=9	=9
I	4FF	8B-	4d	4f	4dd
.	.	4A-	.	.	.
V7d/IV	4FF	.	4d	4b-	4ff
.	.	16G	.	.	.
.	.	16F	.	.	.
IV	4BB-	8E-	4e-	4b-	4gg
.	.	8d	.	.	.
viio7/II	4FF#	8c	4d	4a-	4ff
.	.	8B	.	.	.
=10	=10	=10	=10	=10	=10
ii	2GG	8c	8e-	4.g	2ee-
.	.	8d	8f	.	.
.	.	8e-	4g	.	.
.	.	8f	.	8a	.
V/II;	4DD;	4g;	4g;	4b;	4dd;
vi	4DD	8g	4b-	4g	4dd
.	.	8f	.	.	.
=11	=11	=11	=11	=11	=11
V7d	4CC	8e-	4f	4a	4cc
.	.	8d	.	.	.
I	4FF	8c	4f	4b-	4dd
.	.	8B-	.	.	.
V7	2CC	4f	8f	4b-	4cc
.	.	.	16e-	.	.
.	.	.	16d	.	.
.	.	4F	4e-	4a	4cc
=12	=12	=12	=12	=12	=12
I;	2.FF;	2.B-;	2.d;	2.f;	2.b-;
==|!	==|!	==|!	==|!	==|!	==|!
*-	*-	*-	*-	*-	*-
!!chor2scor: -l 2 -s 0.6 -o %b.pmx
!!!YEC: Copyright 2003 by Craig Stuart Sapp
!!!license: GNU General Public License (http://www.gnu.org/copyleft/gpl.html)
!!!SMA: 371 Bach Chorales, edited by Ludwig Erk, C.F. Peters
!!!PDT: 1850, 1865
!!!ONB: Harmony and Root analysis done manually by Craig Sapp
